X:1
T:James Gibb editions
T:Improperium expectavit - Casali
T:#
%%score [ 1 2 3 4 ]
L:1/8
Q:1/4=52
M:4/4
K:F
V:1 treble nm="Soprano" snm="S"
V:2 treble nm="Alto" snm="A"
V:3 treble-8 nm="Tenor" snm="T"
V:4 bass nm="Bass" snm="B"
V:1
"^Improperium expectavit""^Giovanni Battista Casali\n(1715-92)""^largo"!mf! B3 B c3 c | %1
w: Im- pro- pe- ri-|
"^," B2 d4 c2 | B2 BB c2 d2 | G2 c2 (c2 B2 |[M:4/4]"^," A2 d2 c2 B2- | B2)!>(! A2 B4!>)! | %6
w: um ex- pe-|cta- vit cor me- um|et mi- se\- *||* ri- am;|
 z2!f! B4 B2 | B3 B"^," B2 B2- | B2 c2!>(! d3 d!>)! | d2 z2 z4 | z2!mf! A2 d3 c | %11
w: et su-|sti- nu- i, et|* su- sti- nu-|i.|qui si- mul|
 B2"^," AA G2 ^F2 | G4"^," A2!f! A2- | A2 B2!>(! A4!>)! |"^," A4!p! A2 A2 | B3 B"^," A2 d2- | %16
w: me cum con- tri- sta-|re- tur, et|* non fu-|it; con- so-|lan- tem me quae\-|
 d2 ^c2 d2 z2 |!mf! A2 A2 B3 B |"^," A2 c4 =B2 |"^," c2!f! G2 c2 c2 | (A2 G2 A2 _B2 | %21
w: * si- vi,|con- so- lan- tem|me quae- si-|vi, et non in-|ve\- * * *|
!>(! G4) A2!>)! z2 | !>!G6!p! F2 | !>!B4"^," A2!mf! A2 | G2 c2 B2 B2 |"^," A2!f! A3 A d2- | %26
w: * ni:|et de-|de- runt in|e- scam me- am|fel, et in si\-|
 d2 ^c2 d4 | ^c4 z2!mf! d=c | B2"^," A2 Bc d2- | d2 c2"^,"!>(! d2 B2 | A4!>)! G2!mf! d2- | %31
w: * ti me-|a po- ta-|ve- runt, po- ta- ve\-|* runt me a-|ce- to, po\-|
 d2 c2 c2!<(! B2 | A2 (Bc)!<)! d4- | d2 c2"^,"!>(! c2 B2 | A4!>)!"^," G2!f! =BB | %35
w: * ta- ve- runt,|po- ta\- * ve\-|* runt me a-|ce- to, po- ta-|
 c2 =B2"^," c2 d2 |!>(! c8!>)! | !fermata!=B8 |] %38
w: ve- runt me a-|ce-|to.|
V:2
 z2!mf! G3 (^F/E/) FF | G2 z2 z2 A2- | A2 G2 A4 |"^," G3 G ^F2 G2 |[M:4/4] =F2 F2 F4- | %5
w: Im- pro\- * pe- ri-|um ex\-|* pe- cta-|vit cor me- um,|et mi- se\-|
 F2!>(! F2 F4!>)! | z2!f! F4 F2 | G3 G"^," G2 G2- | G2 G2!>(! G2 (^FE)!>)! | ^F2 z2 z2!mf! D2 | %10
w: * ri- am;|et su-|sti- nu- i, et|* su- sti- nu\- *|i. qui|
 G2 ^F2 G2 AA | G2 D2 D2 DD | D2 D2 E2 E2 |!f! D2 (GF)!>(! E4!>)! | D4 z4 |!p! D2 D2 F3 F | %16
w: si- mul me cum con-|tri- sta- re- tur, con-|tri- sta- re- tur,|et non * fu-|it;|con- so- lan- tem|
"^," E2 A2 (F3 E) | D2 z2!mf! G2 G2 | F2 (AG)"^," F3 F | E4"^," F2!f! G2 | F2 E2 (F4- | %21
w: me quae- si\- *|vi, con- so-|lan- tem * me quae-|si- vi, et|non in- ve\-|
!>(! F2 E2)"^," F2!>)!!p! !>!F2- | F2 E2 (!>!A4- | A2 G2)"^," F2!mf! F2 | E2 F2 F2 E2 | %25
w: * * ni: et|* de- de\-|* * runt in|e- scam me- am|
 F2 z2!f! A3 A | A2 A4 G2 |"^," A2!mf! AG ^F3 A |"^," G2 ^FF (GA) (BA) | G3 G (^F2 G2- | %30
w: fel, et in|si- ti me-|a po- ta- ve- runt|me, po- ta- ve\- * runt *|me a- ce\- *|
 G2 ^F2)"^," G!mf!DG=F | _E2"^," E2 D2 G2 | ^F2 G2 F2 FF | G2 (AG)"^,"!>(! ^F2 G2- | %34
w: * * to, in si- ti|me- a po- ta-|ve- runt me po- ta-|ve- runt * me a\-|
 G2 ^F2!>)!"^," G2!f! GG | G2 G2"^," G2 G2 |!>(! G8!>)! | !fermata!G8 |] %38
w: * ce- to, po- ta-|ve- runt me a-|ce-|to.|
V:3
!mf! d3 d c3 c | d2 z2 z4 | z4 z2 d2- | d2 c2 d2 dd |[M:4/4][K:treble-8] c2"^," B2 A2 d2 | %5
w: Im- pro- pe- ri-|um|ex\-|* pe- cta- vit cor|me- um, et mi-|
 c3!>(! c d4!>)! | z2!f! d4 d2 | d3 d d2 z2 | d2 G2!>(! A3 G!>)! |"^," A2!mf! A2 d3 c | %10
w: se- ri- am;|et su-|sti- nu- i,|et su- sti- nu-|i, qui si- mul|
 (Bc)"^,"dc B2 ^F2 | (G2 A2 B2) AA | B2 d2 ^c2 c2 |!f! d2 d2!>(! d2 ^c2!>)! | d4 z4 | z8 | %16
w: me * cum con- tri- sta-|re\- * * tur, con-|tri- sta- re- tur,|et non fu\- *|it;||
!p! A2 A2 B3 B |"^," A2!mf! d2 =c4 |"^," c2 c2 d4 | G2 z2 z2!f! c2 | c6 d2 |!>(! c4!>)! c2 z2 | %22
w: con- so- lan- tem|me quae- si-|vi, quae- si-|vi, et|non in-|ve- ni:|
 z8 | z4 z2!mf! c2 | c2 c2 d2 B2 | c2 z2!f! f3 f | e2 e2 d4 | e4 z4 | z2!mf! dc (BA GA | %29
w: |in|e- scam me- am|fel, et in|si- ti me-|a|po- ta- ve\- * * *|
 B2) G2 A2 z2 | z Ad c B2 B2 | z4!mf! A2 (Bc) | d2 B2"^," A2 AA | d2 _e2"^,"!>(! d2 d2 | %34
w: * runt me,|in si- ti me- a|po- ta\- *|ve- runt me, po- ta-|ve- runt me a-|
 d4!>)!"^," d2!f! dd | c2 d2"^," _e2 d2 |!>(! _e8!>)! | !fermata!d8 |] %38
w: ce- to, po- ta-|ve- runt me a-|ce-|to.|
V:4
!mf! G,3 G, A,3 A, | G,2 z2 z4 | z2 G,4 F,2 | _E,2 E,E, D,2 G,2 |[M:4/4] A,2 B,2 F,4- | %5
w: Im- pro- pe- ri-|um|ex- pe-|cta- vit cor me- um,|et mi- se\-|
 F,2!>(! F,2 B,,4!>)! | z2!f! B,4 B,2 | G,3 G, G,2 z2 | G,2 _E,2!>(! D,3 D,!>)! | D,2 z2 z4 | %10
w: * ri- am;|et su-|sti- nu- i,|et su- sti- nu-|i,|
 z4 z2!mf! D,2 | G,2 ^F,2 G,2"^," D,D, | G,2 B,2 A,2 A,2 | !courtesy!=F,2 G,2 A,4 | D,4 z4 | z8 | %16
w: qui|si- mul me cum con-|tri- sta- re- tur,|et non fu-|it;||
 z4!p! D,2 D,2 | F,3 F, E,4 |!mf! F,4 D,4 |"^," C,2!f! C2 A,2 E,2 | (F,2 C,2 F,2 B,,2 | %21
w: con- so-|lan- tem me|quae- si-|vi, et non in-|ve\- * * *|
!>(! C,4) F,2!>)! z2 | z8 | z4 z2!mf! F,2 | C2 A,2 B,2 G,2 | F,2 z2!f! D,3 D, | A,2 A,2 B,4 | %27
w: * ni:||in|e- scam me- am|fel, et in|si- ti me-|
 A,4 z4 | z4 z2!mf! G,F, | _E,3 E,"^," D,2 G,2 | D,4 G,2 z2 |!mf! C2 A,2 ^F,2 G,2 |"^," D,6 D,C, | %33
w: a|po- ta-|ve- runt me a-|ce- to,|po- ta- ve runt|me, po- ta-|
 B,,2 C,2"^,"!>(! D,2 G,2 | D,4!>)!"^," G,,2!f! G,F, | _E,2 D,2"^," C,2 =B,,2 |!>(! C,8!>)! | %37
w: ve- runt me a-|ce- to, po- ta-|ve runt me a-|ce-|
 !fermata!G,,8 |] %38
w: to.|

